X: 10578
T: Dot The Dragon's Eyes
R: reel
M: 4/4
K: Eminor
e2(3BBB B2AB|dB (3BBB B2AG|A2AB GAE2|DEGD EGeg|
e2(3BBB B2AB|dB (3BBB B2AG|1 A2G2 E2G (A|A) A G2 gfed:|2 AG G3 BAG|AGE3GAB ]|
A2G2 E2G (A|A) AG2 EDBD|E2D2 G2D (E|E) E2D EGAB|
A2G2 E2G (A|A) AG2 EDBD|E2ED EGD(E|E)E2D EGAB|
A2G2 E2G (A|A) AG2 EDBD|E2D2 G2D (E|E) E2D EGAB|
ABG(A A2)B(d|d)B2A Bdeg|e3 e3 eg|a2g2 ed3|

